X: 30903
T: Over The Cabot Trail
R: jig
M: 6/8
K: Amajor
|:E|ABA Ace|{g}fec e2B|cBc Ace|{g}fec B2c|
ABA Ace|{g}fec a2g|fec efa|cBA A2:|
|:f/g/|aea fec|ece a2f/g/|aea fec|ecA B2b|
aga fec|ece a2g|fec efa|cBA A2:|

